src/cmd/sc_transformdialog.svg

<svg viewBox="0 0 16 16" xmlns="http://www.w3.org/2000/svg"><path d="m2 2v3h3v-3zm9 0v3h3v-3zm-8 1h1v1h-1zm9 0h1v1h-1zm-6 1v1h1v-1zm3 0v1h1v-1zm-5 2v1h1v-1zm7 0v1h1v-1zm-7 3v1h1v-1zm7 0v1h1v-1zm-9 2v3h3v-3zm1 1h1v1h-1z" fill="#232629"/><path d="m7 12c-.5522847 0-1 .447715-1 1s.4477153 1 1 1 1-.447715 1-1-.4477153-1-1-1zm3 0c-.5522847 0-1 .447715-1 1s.4477153 1 1 1c.552285 0 1-.447715 1-1s-.447715-1-1-1zm3 0c-.552285 0-1 .447715-1 1s.447715 1 1 1 1-.447715 1-1-.447715-1-1-1z" fill="#e95420"/></svg>

<?xml version="1.0" encoding="UTF-8" standalone="no"?>
<svg
   xmlns:dc="http://purl.org/dc/elements/1.1/"
   xmlns:cc="http://creativecommons.org/ns#"
   xmlns:rdf="http://www.w3.org/1999/02/22-rdf-syntax-ns#"
   xmlns:svg="http://www.w3.org/2000/svg"
   xmlns="http://www.w3.org/2000/svg"
   xmlns:sodipodi="http://sodipodi.sourceforge.net/DTD/sodipodi-0.dtd"
   xmlns:inkscape="http://www.inkscape.org/namespaces/inkscape"
   viewBox="0 0 16 16"
   version="1.1"
   id="svg6"
   sodipodi:docname="sc_transformdialog.svg"
   inkscape:version="0.92.4 (5da689c313, 2019-01-14)">
  <metadata
     id="metadata12">
    <rdf:RDF>
      <cc:Work
         rdf:about="">
        <dc:format>image/svg+xml</dc:format>
        <dc:type
           rdf:resource="http://purl.org/dc/dcmitype/StillImage" />
      </cc:Work>
    </rdf:RDF>
  </metadata>
  <defs
     id="defs10" />
  <sodipodi:namedview
     pagecolor="#ffffff"
     bordercolor="#666666"
     borderopacity="1"
     objecttolerance="10"
     gridtolerance="10"
     guidetolerance="10"
     inkscape:pageopacity="0"
     inkscape:pageshadow="2"
     inkscape:window-width="1920"
     inkscape:window-height="1011"
     id="namedview8"
     showgrid="true"
     inkscape:zoom="41.7193"
     inkscape:cx="3.9007142"
     inkscape:cy="9.7585785"
     inkscape:window-x="0"
     inkscape:window-y="32"
     inkscape:window-maximized="1"
     inkscape:current-layer="svg6">
    <inkscape:grid
       type="xygrid"
       id="grid850" />
  </sodipodi:namedview>
  <path
     id="path856"
     d="M 9.0000004,12 V 11 H 10 v 1 z m -3,0 v -1 h 1 v 1 z M 11,14 v -3 h 3 v 3 z m 1,-1 h 1 V 12 H 12 Z M 2,11 v 3 h 3 v -3 z m 1,1 h 1 v 1 H 3 Z m 8,-3 v 1 h 1 V 9 Z M 4,9 v 1 H 5 V 9 Z m 7,-3 v 1 h 1 V 6 Z M 4,6 V 7 H 5 V 6 Z M 9,4 v 1 h 1 V 4 Z M 6,4 V 5 H 7 V 4 Z m 5,-2 v 3 h 3 V 2 Z m 1,1 h 1 V 4 H 12 Z M 2,2 V 5 H 5 V 2 Z M 3,3 H 4 V 4 H 3 Z"
     style="fill:#232629;fill-opacity:1" />
</svg>
